src/pos-icons/prescription.svg

<svg height="24" viewBox="0 0 24 24" width="24" xmlns="http://www.w3.org/2000/svg"><path d="m4 4v6 4h2v-4h2l5.41 5.41-3.58 3.59 1.41 1.41 3.59-3.58 3.58 3.58 1.41-1.41-3.58-3.59 3.58-3.58-1.41-1.42-3.58 3.59-4-4h.17a3 3 0 0 0 3-3 3 3 0 0 0 -3-3zm2 2h5a1 1 0 0 1 1 1 1 1 0 0 1 -1 1h-5z"/></svg>

<?xml version="1.0" encoding="UTF-8"?><!DOCTYPE svg PUBLIC "-//W3C//DTD SVG 1.1//EN" "http://www.w3.org/Graphics/SVG/1.1/DTD/svg11.dtd"><svg xmlns="http://www.w3.org/2000/svg" xmlns:xlink="http://www.w3.org/1999/xlink" version="1.1" id="mdi-prescription" width="24" height="24" viewBox="0 0 24 24"><path d="M4,4V10L4,14H6V10H8L13.41,15.41L9.83,19L11.24,20.41L14.83,16.83L18.41,20.41L19.82,19L16.24,15.41L19.82,11.83L18.41,10.41L14.83,14L10.83,10H11A3,3 0 0,0 14,7A3,3 0 0,0 11,4H4M6,6H11A1,1 0 0,1 12,7A1,1 0 0,1 11,8H6V6Z" /></svg>
